X:51
T:The Cock o' the North
R:Jig
M:6/8
K:D
AG|:F2F FED | F2A B2A | F2F FED | E3 A2G |
 |F2F FED | F2A B2A | F2F EFE |1 D3 A2G:|2 D3D2A|
 |:d2A B2A | d2A B2A | F2F FED |E3 E2 A|
 |d2A B2A | d2A B2A | F2F EFE |1 D3 D2 A:|2 D3A2G|
